en/guide/_images/location-job/project/clone-project.svg

<svg width="14" height="14" viewBox="0 0 14 14" fill="none" xmlns="http://www.w3.org/2000/svg">
<path d="M3 0.999023C3 1.55131 3.44772 1.99902 4 1.99902H11.5C11.7761 1.99902 12 2.22288 12 2.49902V9.99629C12 10.5486 12.4477 10.9963 13 10.9963C13.5523 10.9963 14 10.5486 14 9.99629V2.49902C14 1.11831 12.8807 -0.000976562 11.5 -0.000976562H4C3.44772 -0.000976562 3 0.446739 3 0.999023ZM1.5 2.99902C0.671573 2.99902 0 3.6706 0 4.49902V12.499C0 13.3275 0.671573 13.999 1.5 13.999H9.5C10.3284 13.999 11 13.3275 11 12.499V4.49902C11 3.6706 10.3284 2.99902 9.5 2.99902H1.5Z" fill="black"/>
</svg>

<svg xmlns="http://www.w3.org/2000/svg" width="14" height="14" fill="none"><path fill="#000" d="M3 .999a1 1 0 0 0 1 1h7.5a.5.5 0 0 1 .5.5v7.497a1 1 0 1 0 2 0V2.5a2.5 2.5 0 0 0-2.5-2.5H4a1 1 0 0 0-1 1Zm-1.5 2a1.5 1.5 0 0 0-1.5 1.5v8a1.5 1.5 0 0 0 1.5 1.5h8a1.5 1.5 0 0 0 1.5-1.5v-8a1.5 1.5 0 0 0-1.5-1.5h-8Z"/></svg>
